modules/feathericon/icons/birthday-cake.svg

<?xml version="1.0" encoding="UTF-8"?>
<svg width="14px" height="14px" viewBox="0 0 14 14" version="1.1" xmlns="http://www.w3.org/2000/svg" xmlns:xlink="http://www.w3.org/1999/xlink">
    <!-- Generator: sketchtool 48.1 (47250) - http://www.bohemiancoding.com/sketch -->
    <title>birthday-cake</title>
    <desc>Created with sketchtool.</desc>
    <defs></defs>
    <g id="food" stroke="none" stroke-width="1" fill="none" fill-rule="evenodd">
        <g id="birthday-cake" fill="#000000">
            <path d="M14,11.3760739 C14,11.3760739 14,12.25 14,12.25 C14,14 12.25,14 12.25,14 L1.75,14 C1.75,14 -3.98131472e-10,14 -3.9812792e-10,12.25 C-3.98131472e-10,12.25 -3.9812792e-10,11.6599362 -3.98131472e-10,11.3760739 C0.894657492,11.3760739 0.875,10.5 1.75,10.5 C2.625,10.5 2.625,11.3760739 3.5,11.3760739 C4.375,11.3760739 4.375,10.5 5.25,10.5 C6.125,10.5 6.125,11.3750001 7,11.3760739 C7.875,11.375 7.875,10.5 8.75,10.5 C9.625,10.5 9.625,11.3760739 10.5,11.3760739 C11.375,11.3760739 11.375,10.5 12.25,10.5 C13.125,10.5 13.1067865,11.3760739 14,11.3760739 Z M6.125,6.12500001 L6.125,3.9375 C6.125,3.5 6.5625,3.5 6.5625,3.5 L7.4375,3.5 C7.4375,3.5 7.875,3.5 7.875,3.9375 L7.875,6.12500001 L9.625,6.12500001 L9.625,3.9375 C9.625,3.5 10.0625,3.5 10.0625,3.5 L10.9375,3.5 C10.9375,3.5 11.375,3.5 11.375,3.9375 L11.375,6.125 C14,6.125 14,8.75 14,8.75 L14,9.625 C13.125,9.625 13.125,8.75 12.25,8.75 C11.375,8.75 11.375,9.625 10.5,9.625 C9.625,9.625 9.625,8.75 8.75,8.75 C7.875,8.75 7.875,9.625 7,9.625 C6.125,9.625 6.125,8.75 5.25,8.75 C4.375,8.75 4.375,9.625 3.5,9.625 C2.625,9.625 2.625,8.75 1.75,8.75 C0.875,8.75 0.875410974,9.625 -4.97950015e-11,9.625 L-4.97950015e-11,8.75 C-4.97950015e-11,8.75 -4.97950015e-11,6.125 2.625,6.125 L2.625,3.9375 C2.625,3.5 3.0625,3.5 3.0625,3.5 L3.9375,3.5 C3.9375,3.5 4.375,3.5 4.375,3.9375 L4.375,6.12500001 L6.125,6.12500001 Z M10.5,2.625 C10.0167508,2.625 9.625,2.03737373 9.625,1.3125 C10.0625,0.875 10.5,0.872062683 10.5,0 C10.9832492,0 11.375,0.587626266 11.375,1.3125 C11.375,2.03737373 10.9832492,2.625 10.5,2.625 Z M7,2.625 C6.51675084,2.625 6.125,2.03737373 6.125,1.3125 C6.5625,0.875 7,0.872062683 7,0 C7.48324916,0 7.875,0.587626266 7.875,1.3125 C7.875,2.03737373 7.48324916,2.625 7,2.625 Z M3.5,2.625 C3.01675084,2.625 2.625,2.03737373 2.625,1.3125 C3.0625,0.875 3.5,0.872062683 3.5,0 C3.98324916,0 4.375,0.587626266 4.375,1.3125 C4.375,2.03737373 3.98324916,2.625 3.5,2.625 Z" id="Shape"></path>
        </g>
    </g>
</svg>

<svg width="14" height="14" viewBox="0 0 14 14" xmlns="http://www.w3.org/2000/svg"><path d="M14 11.376v.874C14 14 12.25 14 12.25 14H1.75S0 14 0 12.25v-.874c.895 0 .875-.876 1.75-.876s.875.876 1.75.876.875-.876 1.75-.876.875.875 1.75.876c.875-.001.875-.876 1.75-.876s.875.876 1.75.876.875-.876 1.75-.876.857.876 1.75.876zM6.125 6.125V3.937c0-.437.438-.437.438-.437h.875s.437 0 .437.438v2.187h1.75V3.937c0-.437.438-.437.438-.437h.874s.438 0 .438.438v2.187C14 6.125 14 8.75 14 8.75v.875c-.875 0-.875-.875-1.75-.875s-.875.875-1.75.875-.875-.875-1.75-.875-.875.875-1.75.875-.875-.875-1.75-.875-.875.875-1.75.875-.875-.875-1.75-.875-.875.875-1.75.875V8.75s0-2.625 2.625-2.625V3.937c0-.437.438-.437.438-.437h.874s.438 0 .438.438v2.187h1.75zm4.375-3.5c-.483 0-.875-.588-.875-1.313.438-.437.875-.44.875-1.312.483 0 .875.588.875 1.313 0 .724-.392 1.312-.875 1.312zm-3.5 0c-.483 0-.875-.588-.875-1.313C6.563.875 7 .873 7 0c.483 0 .875.588.875 1.313 0 .724-.392 1.312-.875 1.312zm-3.5 0c-.483 0-.875-.588-.875-1.313C3.063.875 3.5.873 3.5 0c.483 0 .875.588.875 1.313 0 .724-.392 1.312-.875 1.312z" fill="#000" fill-rule="evenodd"/></svg>
